TF1/histpfunc.svg

<svg xmlns="http://www.w3.org/2000/svg" viewBox="0 0 1200 800" preserveAspectRatio="none" width="1200" height="800">
 <path d="M0,0H1200V800H0Z" style="fill: white;"></path>
 <g>
  <g transform="translate(120,80)">
   <path d="M0,0H960V640H0Z" style="fill: white; stroke: black; stroke-width: 1;"></path>
   <svg x="0" y="0" overflow="hidden" width="960" height="640" viewBox="0 0 960 640">
    <g>
     <path d="M0,415h5v-4h5v39h4v-46h5v21h5v11h5v-18h5v-46h4v64h5v-60h5v14h5v56h5v-10h4v10h5v-7h5v-35h5v-53h5v120h4v-42h5v49h5v-74h5v99h5v-57h4v-35h5v85h5v-43h5v11h5v46h4v-46h5v46h5v-14h5v-29h5v21h9v46h5v-35h5v-11h5v22h4v21h5v-57h5v-14h5v25h5v-18h4v25h5v18h5v35h5v-60h5v28h4v-46h5v36h5v-53h5v10h5v57h4v-64h5v39h5v-56h5v3h5v39h4v-74h5v-25h5v-28h5v123h5v-63h9v-81h5v-28h5v35h5v-35h4v10h5v-81h5v36h10v-46h4v-32h5v11h5v-113h5v148h5v-53h4v-106h5v67h5v28h5v-141h5v117h4v-67h5v10h5v57h5v-64h5v4h4v28h5v11h5v-29h5v120h5v35h4v-112h5v17h5v-24h5v56h5v56h4v-24h5v24h5v-3h5v14h5v32h4v53h5v-29h5v-14h5v57h5v-32h4v60h5v21h5v35h5v-7h5v4h4v56h5v-35h5v28h5v32h5v-29h4v46h5v11h5v-7h5v24h5v8h4v-15h5v29h5v-29h5v36h5v-25h4v11h5v21h10v17h5v-17h4v7h5v-11h5v11h5v7h5v-14h4v-4h5v25h5v-32h5v11h5v17h4v-14h5v14h5v-3h10v-7h4v24h5v-14h5v-7h5v-7h5v4h4v7h5v-50h5v60h5v-28h5v11h4v10h10v7h5v-14h9v11h5v-18h5v7h5v21h5v-7h4v-7h5v4h5v3h5v-7h5v14h4v-3h10v-4h5v4h5v-4h4v-3h5v17h5v-3h14v7h5v-7h5v3h5v4h5v-4h4v4h5v-7h5v3h5v4h5v-4h4v-3h10v-4h14v-10h5v14h5L960,643H0Z" style="stroke-linejoin: miter; stroke: #00009a; stroke-width: 1; fill: #c08378;"></path>
    </g>
    <g>
     <path d="M5,570h10h9l10,1l9,1l10,1l10,1l9,2l10,2l9,1l10,2l10,2l9,2l10,3l9,2l10,2l10,2l9,1l10,2l9,1l10,1h10l9,-1l10,-1l9,-1l10,-3l10,-3l9,-4l10,-5l9,-5l10,-7l10,-7l9,-11l10,-11l9,-11l10,-10l10,-9l9,-9l10,-7l9,-6l10,-4l10,-3l9,-1l10,1l9,2l10,4l10,5l9,7l10,8l9,8l10,9l10,10l9,10l10,10l9,9l10,10l10,9l9,8l10,8l9,7l10,6l10,6l9,5l10,3l9,2l10,1l10,1l9,1h10l9,1h10h10h9h10h9h10h10h9h10h9h10l10,1h9l10,1h9l10,1h10l9,1l10,1h9l10,1l10,1l9,1h10l9,1l10,-1l10,-1h9l10,-1l9,-1" style="fill: none; stroke: blue; stroke-width: 6;"></path>
    </g>
   </svg>
   <g>
    <g transform="translate(0,640)">
     <path d="M0,0h960M0,-24V0M19,-12V0M38,-12V0M58,-12V0M77,-12V0M96,-24V0M115,-12V0M134,-12V0M154,-12V0M173,-12V0M192,-24V0M211,-12V0M230,-12V0M250,-12V0M269,-12V0M288,-24V0M307,-12V0M326,-12V0M346,-12V0M365,-12V0M384,-24V0M403,-12V0M422,-12V0M442,-12V0M461,-12V0M480,-24V0M499,-12V0M518,-12V0M538,-12V0M557,-12V0M576,-24V0M595,-12V0M614,-12V0M634,-12V0M653,-12V0M672,-24V0M691,-12V0M710,-12V0M730,-12V0M749,-12V0M768,-24V0M787,-12V0M806,-12V0M826,-12V0M845,-12V0M864,-24V0M883,-12V0M902,-12V0M922,-12V0M941,-12V0M960,-24V0" style="stroke: black; stroke-width: 1;"></path>
     <g font-family="Arial" font-size="28" space="preserve" fill="black" text-anchor="middle">
      <text dy=".8em" transform="translate(0,1)">
       0
      </text>
      <text dy=".8em" transform="translate(96,1)">
       1
      </text>
      <text dy=".8em" transform="translate(192,1)">
       2
      </text>
      <text dy=".8em" transform="translate(288,1)">
       3
      </text>
      <text dy=".8em" transform="translate(384,1)">
       4
      </text>
      <text dy=".8em" transform="translate(480,1)">
       5
      </text>
      <text dy=".8em" transform="translate(576,1)">
       6
      </text>
      <text dy=".8em" transform="translate(672,1)">
       7
      </text>
      <text dy=".8em" transform="translate(768,1)">
       8
      </text>
      <text dy=".8em" transform="translate(864,1)">
       9
      </text>
      <text dy=".8em" transform="translate(960,1)">
       10
      </text>
     </g>
    </g>
    <g>
     <path d="M0,0v640M36,640H0M18,622H0M18,605H0M18,587H0M36,570H0M18,552H0M18,534H0M18,517H0M36,499H0M18,481H0M18,464H0M18,446H0M36,429H0M18,411H0M18,393H0M18,376H0M36,358H0M18,341H0M18,323H0M18,305H0M36,288H0M18,270H0M18,252H0M18,235H0M36,217H0M18,200H0M18,182H0M18,164H0M36,147H0M18,129H0M18,112H0M18,94H0M36,76H0M18,59H0M18,41H0M18,23H0M36,6H0" style="stroke: black; stroke-width: 1;"></path>
     <g font-family="Arial" font-size="28" space="preserve" fill="black" text-anchor="end">
      <text dy=".4em" transform="translate(-4,640)">
       0
      </text>
      <text dy=".4em" transform="translate(-4,570)">
       20
      </text>
      <text dy=".4em" transform="translate(-4,499)">
       40
      </text>
      <text dy=".4em" transform="translate(-4,429)">
       60
      </text>
      <text dy=".4em" transform="translate(-4,358)">
       80
      </text>
      <text dy=".4em" transform="translate(-4,288)">
       100
      </text>
      <text dy=".4em" transform="translate(-4,217)">
       120
      </text>
      <text dy=".4em" transform="translate(-4,147)">
       140
      </text>
      <text dy=".4em" transform="translate(-4,76)">
       160
      </text>
      <text dy=".4em" transform="translate(-4,6)">
       180
      </text>
     </g>
    </g>
   </g>
  </g>
  <g transform="translate(120,4)" font-family="Arial" font-size="40" space="preserve">
   <text fill="black" text-anchor="middle" dy=".8em" transform="translate(480)">
    Test random numbers
   </text>
  </g>
  <g transform="translate(936,52)" font-family="Arial" font-size="25" space="preserve" fill="black">
   <path d="M0,0H240V128H0Z" style="fill: white; stroke: black; stroke-width: 1;"></path>
   <text text-anchor="middle" dy=".4em" transform="translate(120,16)">
    h1f
   </text>
   <text text-anchor="start" dy=".4em" transform="translate(12,48)">
    Entries
   </text>
   <text text-anchor="end" dy=".4em" transform="translate(228,48)">
    10000
   </text>
   <text text-anchor="start" dy=".4em" transform="translate(12,80)">
    Mean
   </text>
   <text text-anchor="end" dy=".4em" transform="translate(228,80)">
    3.637
   </text>
   <text text-anchor="start" dy=".4em" transform="translate(12,112)">
    Std Dev
   </text>
   <text text-anchor="end" dy=".4em" transform="translate(228,112)">
    1.834
   </text>
   <path d="M0,32h240" style="stroke: black; stroke-width: 1;"></path>
  </g>
 </g>
</svg>

<svg xmlns="http://www.w3.org/2000/svg" viewBox="0 0 1200 800" preserveAspectRatio="none" width="1200" height="800">
 <path d="M0,0H1200V800H0Z" style="fill: white;"></path>
 <g>
  <g transform="translate(120,80)">
   <path d="M0,0H960V640H0Z" style="fill: white; stroke: black; stroke-width: 1;"></path>
   <svg x="0" y="0" overflow="hidden" width="960" height="640" viewBox="0 0 960 640">
    <g>
     <path d="M0,415h5v-4h5v39h4v-46h5v21h5v11h5v-18h5v-46h4v64h5v-60h5v14h5v56h5v-10h4v10h5v-7h5v-35h5v-53h5v120h4v-42h5v49h5v-74h5v99h5v-57h4v-35h5v85h5v-43h5v11h5v46h4v-46h5v46h5v-14h5v-29h5v21h9v46h5v-35h5v-11h5v22h4v21h5v-57h5v-14h5v25h5v-18h4v25h5v18h5v35h5v-60h5v28h4v-46h5v36h5v-53h5v10h5v57h4v-64h5v39h5v-56h5v3h5v39h4v-74h5v-25h5v-28h5v123h5v-63h9v-81h5v-28h5v35h5v-35h4v10h5v-81h5v36h10v-46h4v-32h5v11h5v-113h5v148h5v-53h4v-106h5v67h5v28h5v-141h5v117h4v-67h5v10h5v57h5v-64h5v4h4v28h5v11h5v-29h5v120h5v35h4v-112h5v17h5v-24h5v56h5v56h4v-24h5v24h5v-3h5v14h5v32h4v53h5v-29h5v-14h5v57h5v-32h4v60h5v21h5v35h5v-7h5v4h4v56h5v-35h5v28h5v32h5v-29h4v46h5v11h5v-7h5v24h5v8h4v-15h5v29h5v-29h5v36h5v-25h4v11h5v21h10v17h5v-17h4v7h5v-11h5v11h5v7h5v-14h4v-4h5v25h5v-32h5v11h5v17h4v-14h5v14h5v-3h10v-7h4v24h5v-14h5v-7h5v-7h5v4h4v7h5v-50h5v60h5v-28h5v11h4v10h10v7h5v-14h9v11h5v-18h5v7h5v21h5v-7h4v-7h5v4h5v3h5v-7h5v14h4v-3h10v-4h5v4h5v-4h4v-3h5v17h5v-3h14v7h5v-7h5v3h5v4h5v-4h4v4h5v-7h5v3h5v4h5v-4h4v-3h10v-4h14v-10h5v14h5L960,643H0Z" style="stroke-linejoin: miter; stroke: #00009a; stroke-width: 1; fill: #c08378;"></path>
    </g>
    <g>
     <path d="M5,570L15,570L24,570L34,571L43,572L53,573L63,574L72,576L82,578L91,579L101,581L111,583L120,585L130,588L139,590L149,592L159,594L168,595L178,597L187,598L197,599L207,599L216,598L226,597L235,596L245,593L255,590L264,586L274,581L283,576L293,569L303,562L312,551L322,540L331,529L341,519L351,510L360,501L370,494L379,488L389,484L399,481L408,480L418,481L427,483L437,487L447,492L456,499L466,507L475,515L485,524L495,534L504,544L514,554L523,563L533,573L543,582L552,590L562,598L571,605L581,611L591,617L600,622L610,625L619,627L629,628L639,629L648,630L658,630L667,631L677,631L687,631L696,631L706,631L715,631L725,631L735,631L744,631L754,631L763,631L773,631L783,632L792,632L802,633L811,633L821,634L831,634L840,635L850,636L859,636L869,637L879,638L888,639L898,639L907,640L917,639L927,638L936,638L946,637L955,636" style="fill: none; stroke: blue; stroke-width: 6;"></path>
    </g>
   </svg>
   <g>
    <g transform="translate(0,640)">
     <path d="M0,0h960M0,-24V0M19,-12V0M38,-12V0M58,-12V0M77,-12V0M96,-24V0M115,-12V0M134,-12V0M154,-12V0M173,-12V0M192,-24V0M211,-12V0M230,-12V0M250,-12V0M269,-12V0M288,-24V0M307,-12V0M326,-12V0M346,-12V0M365,-12V0M384,-24V0M403,-12V0M422,-12V0M442,-12V0M461,-12V0M480,-24V0M499,-12V0M518,-12V0M538,-12V0M557,-12V0M576,-24V0M595,-12V0M614,-12V0M634,-12V0M653,-12V0M672,-24V0M691,-12V0M710,-12V0M730,-12V0M749,-12V0M768,-24V0M787,-12V0M806,-12V0M826,-12V0M845,-12V0M864,-24V0M883,-12V0M902,-12V0M922,-12V0M941,-12V0M960,-24V0" style="stroke: black; stroke-width: 1;"></path>
     <g font-family="Arial" font-size="28" space="preserve" fill="black" text-anchor="middle">
      <text dy=".8em" transform="translate(0,1)">
       0
      </text>
      <text dy=".8em" transform="translate(96,1)">
       1
      </text>
      <text dy=".8em" transform="translate(192,1)">
       2
      </text>
      <text dy=".8em" transform="translate(288,1)">
       3
      </text>
      <text dy=".8em" transform="translate(384,1)">
       4
      </text>
      <text dy=".8em" transform="translate(480,1)">
       5
      </text>
      <text dy=".8em" transform="translate(576,1)">
       6
      </text>
      <text dy=".8em" transform="translate(672,1)">
       7
      </text>
      <text dy=".8em" transform="translate(768,1)">
       8
      </text>
      <text dy=".8em" transform="translate(864,1)">
       9
      </text>
      <text dy=".8em" transform="translate(960,1)">
       10
      </text>
     </g>
    </g>
    <g>
     <path d="M0,0v640M36,640H0M18,622H0M18,605H0M18,587H0M36,570H0M18,552H0M18,534H0M18,517H0M36,499H0M18,481H0M18,464H0M18,446H0M36,429H0M18,411H0M18,393H0M18,376H0M36,358H0M18,341H0M18,323H0M18,305H0M36,288H0M18,270H0M18,252H0M18,235H0M36,217H0M18,200H0M18,182H0M18,164H0M36,147H0M18,129H0M18,112H0M18,94H0M36,76H0M18,59H0M18,41H0M18,23H0M36,6H0" style="stroke: black; stroke-width: 1;"></path>
     <g font-family="Arial" font-size="28" space="preserve" fill="black" text-anchor="end">
      <text dy=".4em" transform="translate(-4,640)">
       0
      </text>
      <text dy=".4em" transform="translate(-4,570)">
       20
      </text>
      <text dy=".4em" transform="translate(-4,499)">
       40
      </text>
      <text dy=".4em" transform="translate(-4,429)">
       60
      </text>
      <text dy=".4em" transform="translate(-4,358)">
       80
      </text>
      <text dy=".4em" transform="translate(-4,288)">
       100
      </text>
      <text dy=".4em" transform="translate(-4,217)">
       120
      </text>
      <text dy=".4em" transform="translate(-4,147)">
       140
      </text>
      <text dy=".4em" transform="translate(-4,76)">
       160
      </text>
      <text dy=".4em" transform="translate(-4,6)">
       180
      </text>
     </g>
    </g>
   </g>
  </g>
  <g transform="translate(120,4)" font-family="Arial" font-size="40" space="preserve">
   <text fill="black" text-anchor="middle" dy=".8em" transform="translate(480)">
    Test random numbers
   </text>
  </g>
  <g transform="translate(936,52)" font-family="Arial" font-size="25" space="preserve" fill="black">
   <path d="M0,0H240V128H0Z" style="fill: white; stroke: black; stroke-width: 1;"></path>
   <text text-anchor="middle" dy=".4em" transform="translate(120,16)">
    h1f
   </text>
   <text text-anchor="start" dy=".4em" transform="translate(12,48)">
    Entries
   </text>
   <text text-anchor="end" dy=".4em" transform="translate(228,48)">
    10000
   </text>
   <text text-anchor="start" dy=".4em" transform="translate(12,80)">
    Mean
   </text>
   <text text-anchor="end" dy=".4em" transform="translate(228,80)">
    3.637
   </text>
   <text text-anchor="start" dy=".4em" transform="translate(12,112)">
    Std Dev
   </text>
   <text text-anchor="end" dy=".4em" transform="translate(228,112)">
    1.834
   </text>
   <path d="M0,32h240" style="stroke: black; stroke-width: 1;"></path>
  </g>
 </g>
</svg>
